X:7
T:Flight of the Bumblebee (Extended)
C:Rimsky-Korsakov
M:2/4
L:1/16
Q:1/4=180
K:Am
a2ga fgef | decd Bcde | fgab c'bag | fede cdec |
Bcde fgab | c'bag fede | cdec Bcde | fgab c'bag |
agfe fede | cdec Bcde | fgab agfe | decd Bcde |
fgab c'bag | agfe decd | Bcde fgab | c'bag agfe |
defg abag | fedc Bcde | fgab c'bag | fedc Bcde |
fgef decd | Bcde fgef | decd Bcde | fgab agfe |
a2ga fgef | decd Bcde | fgab c'bag | fede cdec |
Bcde fgab | c'bag fede | cdec Bcde | fgab c'2a2 |]